icon/fa/check-double.svg

<svg xmlns="http://www.w3.org/2000/svg" viewBox="0 0 448 512"><!--! Font Awesome Free 6.1.2 by @fontawesome - https://fontawesome.com License - https://fontawesome.com/license/free (Icons: CC BY 4.0, Fonts: SIL OFL 1.1, Code: MIT License) Copyright 2022 Fonticons, Inc.--><path d="M182.6 246.6c-12.5 12.5-32.7 12.5-45.2 0l-80.03-80c-12.49-12.5-12.49-32.7 0-45.2 12.5-12.5 32.76-12.5 45.23 0l56.5 57.3L297.4 41.37c12.5-12.49 32.7-12.49 45.2 0 12.5 12.5 12.5 32.76 0 45.26l-160 159.97zm0 224c-12.5 12.5-32.7 12.5-45.2 0L9.372 342.6c-12.496-12.5-12.496-32.7 0-45.2 12.498-12.5 32.758-12.5 45.258 0L159.1 402.7l234.3-233.3c12.5-12.5 32.7-12.5 45.2 0s12.5 32.7 0 45.2l-256 256z"/></svg>

<svg xmlns="http://www.w3.org/2000/svg" viewBox="0 0 448 512" height="1em" width="1em">
<!--! Font Awesome Free 6.1.2 by @fontawesome - https://fontawesome.com License - https://fontawesome.com/license/free (Icons: CC BY 4.0, Fonts: SIL OFL 1.1, Code: MIT License) Copyright 2022 Fonticons, Inc.-->
  <path d="M182.6 246.6C170.1 259.1 149.9 259.1 137.4 246.6L57.37 166.6C44.88 154.1 44.88 133.9 57.37 121.4C69.87 108.9 90.13 108.9 102.6 121.4L159.1 178.7L297.4 41.37C309.9 28.88 330.1 28.88 342.6 41.37C355.1 53.87 355.1 74.13 342.6 86.63L182.6 246.6zM182.6 470.6C170.1 483.1 149.9 483.1 137.4 470.6L9.372 342.6C-3.124 330.1-3.124 309.9 9.372 297.4C21.87 284.9 42.13 284.9 54.63 297.4L159.1 402.7L393.4 169.4C405.9 156.9 426.1 156.9 438.6 169.4C451.1 181.9 451.1 202.1 438.6 214.6L182.6 470.6z"/>
</svg>
